svgs/sharp-solid/tally-4.svg

<svg xmlns="http://www.w3.org/2000/svg" viewBox="0 0 640 512"><!--! Font Awesome Pro 6.6.0 by @fontawesome - https://fontawesome.com License - https://fontawesome.com/license (Commercial License) Copyright 2024 Fonticons, Inc. --><path d="M160 64l0-32L96 32l0 32 0 384 0 32 64 0 0-32 0-384zm128 0l0-32-64 0 0 32 0 384 0 32 64 0 0-32 0-384zM416 32l-64 0 0 32 0 384 0 32 64 0 0-32 0-384 0-32zM544 64l0-32-64 0 0 32 0 384 0 32 64 0 0-32 0-384z"/></svg>

<svg xmlns="http://www.w3.org/2000/svg" viewBox="0 0 640 512"><!--! Font Awesome Pro 6.4.2 by @fontawesome - https://fontawesome.com License - https://fontawesome.com/license (Commercial License) Copyright 2023 Fonticons, Inc. --><path d="M160 64V32H96V64 448v32h64V448 64zm128 0V32H224V64 448v32h64V448 64zM416 32H352V64 448v32h64V448 64 32zM544 64V32H480V64 448v32h64V448 64z"/></svg>
